X: 295
T:Anna Mae's reel
M:4/4
L:1/8
C:Anna Mae MacEachern
Z:Alf.warnock@rogers.com
K:G
{F}G2 FG EG D2|gf ga gd Bd|ef ge dB GB|cB AG F<A D2|
{F}G2 FG EG D2|gf ga gd Bd|ef ge dB GB|cA FD Gz3||
gf ga gd Bd|gf ga gd Bd|a^g ab af df|a^g ab af df|
gf ga gd Bd|gf ga gd Bd|ef ge dB GB|cA FD G z3|]
